X: 1097
T: The Humors of Ballydehob
R:double jig
N:"collected by F.O'Neill"
B:O'Neill's 1097
Z:Transcribed by henrik.norbeck@mailbox.swipnet.se
M:6/8
L:1/8
K:G
(d/c/)|BGG AGE|DGG AGE|DGG AGA|Bdd edc|
BGG AGE|DGG AGE|DEG ABc|BGG G2:|
c|Bdd Acc|BdB cGE|DGG AGA|BAA ABc|
Bdd Acc|BdB cGE|DEG ABc|BGG G2:|


